!!!!SEGMENT: pl-wn--mus-iii-105-719-2--009_zelenski-wladyslaw--25-preludyi-op-38-25-andante-sostenuto-na-temat-swiety-boze.krn
!!!cenid: 18xx:3758
!!!COM: Żeleński, Władysław
!!!COM-rismid: pe41024455
!!!CDT:
!!!CNT:
!!!GTL: 25 preludyi op. 38
!!!OTL: 25. Andante sostenuto. Na temat „Święty Boże”
!!!PDT: 1881
!!!AGN:
!!!SMS-siglum: PL-Wn
!!!SMS-shelfmark: Mus.III.105.719/2
!!!SMS-shelfwork: 009 G
!!!SMS-variant:
!!!SMS-altvar:
!!!NIFC-rismid:
!!!URL-scan: https://polona.pl/item/25-preludyi-2-3-i-4-glosowych-na-organ-lub-fisharmonike-do-uzytku-organistow-i,ODE1NjEwNDA/2/#info:metadata
!!!ONB-nifc:
!!!AIN: 2 piano
!!!key: a
**kern	**fing	**dynam	**kern	**fing	**dynam
*part2	*part2	*part2	*part1	*part1	*part1
*staff2	*	*	*staff1	*	*
*I"Organo	*	*	*I"Organo	*	*
*I'org	*	*	*I'org	*	*
*ICklav	*	*	*ICklav	*	*
*Ipiano	*	*	*Ipiano	*	*
*clefF4	*	*	*clefG2	*	*
*k[]	*	*	*k[]	*	*
*a:	*	*	*a:	*	*
*M4/2	*	*	*M4/2	*	*
=1	=1	=1	=1	=1	=1
*^	*	*	*	*	*
!	!	!	!	!LO:TX:a:i:t=1) Nuty pojedyncze chorału należyg rać na peirwszej klawiaturze 8 stopowemi głosami, akordy zaś przenosić na drugą. / Die einfachen Noten des Chorals soll man auf dem ersten Manual mit 8 Fussstimmen spielen, die Akkorde aber ubertrage man auf das zweite Manual.	!	!
(2A/	0r	2	.	0r	.	mf
2B/	.	1	.	.	.	.
2G#X/	.	2	.	.	.	.
2A/)	.	1	.	.	.	.
=2	=2	=2	=2	=2	=2	=2
*	*	*	*	*^	*	*
2A/	2F\	3 2	.	2a/	2c\	2 4	pp
2d/	2D\	3 1	.	2b/	2f\	2 5	.
2B/	2E\	3 1	.	2g#X/	1e	1-2 4-	.
2ryy	2AA\	1	.	2c/ 2a	.	.	.
*	*	*	*	*v	*v	*	*
=3	=3	=3	=3	=3	=3	=3
4A/	0r	3	.	0r	.	mf
4B/	.	.	.	.	.	.
2c/	.	1	.	.	.	.
2c/	.	2	.	.	.	.
4B/	.	.	.	.	.	.
4A/	.	.	.	.	.	.
=4	=4	=4	=4	=4	=4	=4
*	*	*	*	*^	*	*
2c/	1r	.	.	1r	1ryy	.	.
2B/	.	.	.	.	.	.	.
2G#X/	1E	4-3 2	.	2b/	2e\	4	pp
4F#X/	.	3	.	4a/	2ryy	.	.
4G#/	.	2	.	4b/	.	.	.
=5	=5	=5	=5	=5	=5	=5	=5
(2A/	2AA\	.	<	2cc/	2e\	.	.
2A/	2F\	2 1	.	2cc/	2a\	2 4	.
2A/	1D	5 1-2	.	2cc/	1f	5	.
2d/	.	1	.	4b/	.	4	.
.	.	.	[	4a/	.	5	.
=6	=6	=6	=6	=6	=6	=6	=6
2B/	2E\	3 1	>	2g#X/	4e\	2	.
.	.	.	.	.	4d\	1	.
(2B/	[2AA\	5 1	.	[2a/	4c\	2	.
.	.	.	.	.	4B\	1	.
4E/))	4AA\]	2	.	4a/]	4c\	.	.
4r	4ryy	.	.	4r	4r	.	.
2r	2ryy	.	]	2e/	2r	.	.
*v	*v	*	*	*	*	*	*
*	*	*	*v	*v	*	*
=7	=7	=7	=7	=7	=7
!	!	!	!LO:TX:a:i:t=2) Na pierwszej klawiaturze wzmocnionej. / Erstes Manual verstarkt	!	!
0AA	.	.	(2c/ 2e 2a	1 2 4	f
.	.	.	2d/ 2f 2b	1 3 5	.
.	.	.	2B/ 2d 2g#X	.	.
.	.	.	2c/) 2e 2a	.	.
=8	=8	=8	=8	=8	=8
*^	*	*	*^	*	*
2ryy	4A\	1	.	(>2e/ 2a	2c\	1 2 4	.
.	4G\	3	.	.	.	.	.
4B/	4F\	1 2	.	2b/	4d\	1	.
4d/	4D\	5 1	.	.	4f\	2	.
4c/	2E\	2	.	2g#X/	4e\	1	.
4B/	.	1	.	.	4d\	2	.
4A/	[2A\	3	.	2a/)	4c\	1	.
4B/	.	1	.	.	4d\	2	.
!!LO:LB:g=original	!	!	!	!	!	!	!
=9	=9	=9	=9	=9	=9	=9	=9
4c/	4A\]	2	.	4a/	4e\	1 5	.
4d/	8G\L	4 1	.	4b/	2g\	2 4	.
.	8F\J	5	.	.	.	.	.
2ryy	4E\	4	.	(2c/ 2cc	.	.	.
.	4D\	5	.	.	4f\	2	.
4c/)	4C\	3	.	2cc/	4e\	.	.
4e/	4AA\	5 2	.	.	2g\	3	.
2d/	4D\	3	.	4b/	.	5	.
.	8F\L	2	.	4a/	4f\	2 4	.
.	8G\J	1	.	.	.	.	.
=10	=10	=10	=10	=10	=10	=10	=10
2c/	2A\	2	.	2cc/	4e\	2	.
.	.	.	.	.	4f#X\	3	.
2d/	4G\	1	.	2.b/	2.g\	3 5	.
*ped	*	*	*	*	*	*	*
.	4F\	2	.	.	.	.	.
2.e/	4E\	1 2-1	.	.	.	.	.
.	4D\	.	.	4b/	4g\	.	.
.	4C\	.	.	4a/	4f#X\	2 4	.
4d/	4BB\	1	.	4b/	4g#X\	3 5	.
=11	=11	=11	=11	=11	=11	=11	=11
4c/	4AA\	1	.	2cc/	2a\	.	.
4d/	4BB\	2	.	.	.	.	.
4e/	4C\	1	.	2cc/	2a\	.	.
4f/	4D\	2	.	.	.	.	.
4e/	4E\	1	.	2cc/	2a\	.	.
4e-X/	4F#X\	3 2	.	.	.	.	.
2d/	4G\	2	.	4b/	4g\	.	.
.	4D\	5	.	4a/	4f\	.	.
=12	=12	=12	=12	=12	=12	=12	=12
4c/	2E\	4-3 1	.	2g#X/	4e\	1 3-4	.
4B/	.	2-1	.	.	4d\	2	.
4A/	[2AA\	1	.	[2a/	[2c\	1 5	.
4E/	.	2	.	.	.	.	.
4G/	2.AA\]	1	.	2.a/]	2.c\]	.	.
4F/	.	2	.	.	.	.	.
*Xped	*	*	*	*	*	*	*
4E/	.	1	.	.	.	.	.
4r	4r	.	.	4e/	4r	.	.
*	*	*	*	*v	*v	*	*
=13	=13	=13	=13	=13	=13	=13
!	!	!	!	!LO:TX:a:i:t=3) na drugiej klawiaturze / zweites Manual	!	!
!	!	!	!	!LO:TX:a:i:t=dolce	!	!
8r	0r	.	.	(<2a\	.	pp
(8A/L	.	5	.	.	.	.
8B/	.	.	.	.	.	.
8c/J	.	.	.	.	.	.
8d/L	.	.	.	2b\	.	.
8c/	.	.	.	.	.	.
8B/	.	.	.	.	.	.
8f/J	.	.	.	.	.	.
8e/L	.	.	.	2g#X\	.	.
8d/	.	.	.	.	.	.
8c/	.	.	.	.	.	.
8B/J	.	.	.	.	.	.
8c/L	.	.	.	4a\)	.	.
8d/	.	1	.	.	.	.
8c/	.	3	.	4r	.	.
8B/J	.	4	.	.	.	.
=14	=14	=14	=14	=14	=14	=14
*	*	*	*	*^	*	*
4A/	0r	5	.	(2aa/	8r	.	.
.	.	.	.	.	8a\L	1	.
4a/	.	.	.	.	8b\	2	.
.	.	.	.	.	8cc\J	1	.
4f/	.	2	.	2bb/	8dd\L	2	.
.	.	.	.	.	8cc\	1	.
4d/	.	3	.	.	8b\	1	.
.	.	.	.	.	8ff\J	3	.
4e/	.	.	.	2gg#X/	8ee\L	2	.
.	.	.	.	.	8dd\	1	.
4d/	.	.	.	.	8cc\	2	.
.	.	.	.	.	8b\J	1	.
8c/L	.	.	.	4aa/)	4.a\	1	.
8A/	.	5	.	.	.	.	.
8f/	.	2	.	4r	.	.	.
8e/J	.	1	.	.	8g\	2	.
=15	=15	=15	=15	=15	=15	=15	=15
8d/L	0r	2	<	(4a/	[2f\	1 3	.
8c/	.	3	.	.	.	.	.
8d/	.	1	.	4b/	.	4	.
8G/J	.	2	.	.	.	.	.
4c/	.	1	.	2cc/	8f\L]	5	.
.	.	.	.	.	8e\	2	.
4B/	.	2	.	.	8d\	1	.
.	.	.	.	.	8f\J	2	.
8A/L	.	3	.	2cc/	4e\	.	.
8G/	.	1	.	.	.	.	.
8A/	.	.	.	.	4f#X\	.	.
8D/J	.	.	.	.	.	.	.
[2G/)	.	.	.	4b/	8g\L	3 5	.
.	.	.	.	.	8e\	1	.
.	.	.	.	4a/	8f#\	2	.
.	.	.	[	.	8d\J	1	.
*v	*v	*	*	*	*	*	*
!!LO:LB:g=original	!	!	!	!	!	!
=16	=16	=16	=16	=16	=16	=16
2G\]	.	.	2cc/	(8e\L	2 5	.
.	.	.	.	8d\	1	.
.	.	.	.	8e\	2	.
.	.	.	.	8f#X\J	3	.
4G\	.	.	4b/)	8g\L	1 4	.
.	.	.	.	8a\	2	.
4r	.	.	4r	8b\	3	.
.	.	.	.	8cc\J	1	.
4r	.	.	4ryy	8dd\L	2	.
.	.	.	.	8ff\	3	.
*clefG2	*	*	*	*	*	*
(4g#X/	2	.	(4bb/	8ee\	2 5	.
.	.	.	.	8dd\J	1	.
8a/L	1	.	4aa/	4cc\	1 3	.
8gn/	2	.	.	.	.	.
8f/	1	.	4bb/	4dd\	1 4	.
8d/J	2	.	.	.	.	.
=17	=17	=17	=17	=17	=17	=17
!	!	!LO:HP:a:t=poco cresc.	!	!	!	!
8A/L	4	<	2ccc/	4ee\)	2	.
8G#X/	5	.	.	.	.	.
8A/	.	.	.	(8cc\L	1	.
8B/J	.	.	.	8dd\J	1	.
8c/L	2	.	2ccc/	8ee\L	2	.
8B/	4	.	.	8dd\	1	.
8c/	.	.	.	8ee\	2	.
8d/J	.	.	.	8ff#X\J	3	.
4e/	.	.	2ccc/	8gg\L	1	.
.	.	.	.	8aa\	3	.
4e-X/	.	.	.	8gg\	1	.
.	.	.	.	8ff#\J	2	.
8d/L	1	.	4bb/	4.ffn\	1 5	.
8B/	4	.	.	.	.	.
8c/	.	.	4aa/	.	4-5	.
8d/J	.	.	.	8dd\	2	.
=18	=18	=18	=18	=18	=18	=18
4.e/	.	.	2gg#X/	8b\L	1 4	.
.	.	.	.	8dd\	2	.
.	.	.	.	8cc\	1-2	.
8d/	.	.	.	8b\J	1	.
8c/L	.	.	4aa/	4a\)	1 5	.
8d/	.	.	.	.	.	.
8c/	.	.	2a/)	4r	1-3	.
8B/J	.	.	.	.	.	.
8A/L	5	.	.	1r	.	.
8B/	.	.	.	.	.	.
8c/	3	.	2g/	.	1	.
!	!	!	!	!	!	!
8e-X/J	2	.	.	.	.	.
8d/L	1	.	.	.	.	.
8A/	4	.	.	.	.	.
8d/	.	.	4f#X/	.	3	.
8c/J)	.	.	.	.	.	.
*clefF4	*	*	*	*	*	*
=19	=19	=19	=19	=19	=19	=19
*^	*	*	*	*	*	*
*ped	*	*	*	*	*	*	*
!	!	!	!	!LO:TX:a:i:t=4) na pierwszej klawiaturze, którą przy con moto należy jeszcze wzmocnić. / erstes Manual, bei con moto noch etwas starker.	!	!	!
2D/	[0GG	2	.	2g/	2B\	1 4	f
[2E/	.	1	.	2a/	[2c\	5	.
4E/]	.	.	.	2f#X/	2.c\]	4	.
8D/L	.	2	.	.	.	.	.
8C/J	.	1	.	.	.	.	.
2D/	.	2	.	2g/	.	5	.
.	.	.	.	.	4A\	1	.
=20	=20	=20	=20	=20	=20	=20	=20
4G/	0GG_	1	.	2g/	2B\	2-1 5-4	.
4Fn/	.	2	.	.	.	.	.
4E/	.	1	.	2a/	4c#X\	2 5	.
4C#X/	.	3	.	.	4e\	3	.
4D/	.	2	.	2f#X/	4d\	2 4	.
!	!	!	!	!LO:TX:b:i:t=poco a poco stringendo	!	!	!
4A/	.	1	.	.	4cn\	1	.
4G/	.	1	.	[2g/	[2B\	2 5	.
8D/L	.	3	.	.	.	.	.
8E/J	.	2	.	.	.	.	.
=21	=21	=21	=21	=21	=21	=21	=21
4Fn/	1GG]	5-4 1	.	4g/]	4B\]	.	.
4E/	.	2	.	4a/	4c\	1 4	.
4D/	.	1	.	[2b-X/	4d\	2	.
[4C/	.	2	.	.	4e\	1	.
4C/]	1FFn	.	.	2b-/]	2fn\	.	.
8D/L	.	1	.	.	.	.	.
8E/J	.	2	.	.	.	.	.
2F/	.	1	.	4a/	2c\	.	.
.	.	.	.	4g/	.	.	.
!!LO:LB:g=original	!	!	!	!	!	!	!
=22	=22	=22	=22	=22	=22	=22	=22
2F/	2D\	3 3	.	4a/	4f\	2 4	.
.	.	.	.	4b/	4d\	1 5	.
2A/	2AA\	5-4	.	[2cc/	4e\	1 4-5	.
.	.	.	.	.	4f#X\	2	.
4D/	1GG	2	.	2cc/]	2g\	2	.
8E/L	.	1	.	.	.	.	.
8F#X/J	.	2	.	.	.	.	.
[2G/	.	.	.	4b/	2d\	1	.
.	.	.	.	4a/	.	.	.
=23	=23	=23	=23	=23	=23	=23	=23
2G/]	2E\	2-3 1-2	.	4b/	4g\	.	.
.	.	.	.	4cc#X/	4d\	5	.
2B/	2BB\	4-5	.	[2dd/	4f#X\	2 5	.
.	.	.	.	.	4g#X\	3	.
4E/	[1AA	1	.	2dd/]	2a\	1-2	.
8F#X/L	.	2	.	.	.	.	.
8G#X/J	.	1	.	.	.	.	.
[2A/	.	1	.	4cc#/	2e\	1	.
.	.	.	.	4b/	.	.	.
=24	=24	=24	=24	=24	=24	=24	=24
*Xped	*	*	*	*	*	*	*
1A]	4AA\]	.	.	4cc#X/	4a\	2 4	.
.	8BB\L	.	.	2ee/	4gn\	1 5	.
.	8C#X\J	.	.	.	.	.	.
.	[2D\	4	.	.	[2f#X\	2	.
.	.	.	.	8dd/L	.	5	.
.	.	.	.	8ccn/J	.	4	.
[1G	4D\]	2-1	.	2.b/	4f#\]	3	.
.	4D#X\	.	.	.	8g\L	1	.
.	.	.	.	.	8a\J	2	.
.	4E\	.	.	.	4g\	1	.
.	4BB\	.	.	4dd/	[4f#\	2 5	.
=25	=25	=25	=25	=25	=25	=25	=25
2G/]	4C\	.	.	4g/	4f#\]	3	.
.	4AA\	.	.	2cc/	4e\	.	.
2F#X/	[2BB\	4 2	.	.	[2d#X\	.	.
.	.	.	.	8b/L	.	.	.
.	.	.	.	8a/J	.	.	.
[1E	4BB\]	1	.	2.g/	4d#\]	.	.
.	4BB\	3	.	.	8e\L	1	.
.	.	.	.	.	8f#X\J	2	.
.	4C\	.	.	.	4e\	1-2	.
*ped	*	*	*	*	*	*	*
.	4GG\	.	.	4b/	[4dn\	1 5	.
=26	=26	=26	=26	=26	=26	=26	=26
1E_	1.AA	1-2	.	4e/	2.d\]	1 2	.
.	.	.	.	8f#X/L	.	.	.
.	.	.	.	8g/J	.	.	.
.	.	.	.	[2a/	.	.	.
.	.	.	.	.	4c#X\	2	.
4E/]	.	.	.	4a/]	2cn\	1	.
2G/	.	.	.	2e/	.	4	.
.	2BB\	4-3	.	.	[2B\	2	.
4F#X/	.	2-1	.	4d#X/	.	.	.
=27	=27	=27	=27	=27	=27	=27	=27
*Xped	*	*	*	*	*	*	*
!	!	!	!	!LO:TX:a:i:t=Con moto.	!	!	!
4G/	4EE\	1	.	4e/	4B\]	.	.
4ryy	4r	.	.	4r	4ryy	.	.
!	!	!	!LO:DY:a	!	!	!	!
2r	(>[2E\	.	f	2r	2ryy	.	.
1r	4E\]	.	.	1r	1ryy	.	.
.	4D#X\	.	.	.	.	.	.
.	4A\	.	.	.	.	.	.
.	8G\L	3	.	.	.	.	.
.	8F#X\J	.	.	.	.	.	.
*v	*v	*	*	*	*	*	*
=28	=28	=28	=28	=28	=28	=28
4G\	.	.	0r	(2e\	3	.
8c\L	.	.	.	.	.	.
8B\J	.	.	.	.	.	.
4A\	1	.	.	2f#X\	.	.
8G\L	3	.	.	.	.	.
8F#X\J	4	.	.	.	.	.
4B\	1	.	.	2d#X\	.	.
4A\	2	.	.	.	.	.
8G\L	1	.	.	[2e\	.	.
8F#\	.	.	.	.	.	.
8G\	.	.	.	.	.	.
8E\J)	.	.	.	.	.	.
!!LO:LB:g=original	!	!	!	!	!	!
=29	=29	=29	=29	=29	=29	=29
2F#X\	.	.	2r	4e\]	.	.
.	.	.	.	8d\L	1	.
.	.	.	.	8c#X\J	2	.
2BB/	.	.	([2b/	4d\	1	.
.	.	.	.	4e\	2	.
1r	.	.	4b/]	[1f#X)	1	.
.	.	.	4a#X/	.	.	.
.	.	.	4ee/	.	.	.
.	.	.	8dd/L	.	3	.
.	.	.	8cc#X/J	.	.	.
=30	=30	=30	=30	=30	=30	=30
*^	*	*	*	*	*	*
*	*^	*	*	*	*	*	*
2B/	0r	4ryy	.	.	4dd/	4f#\]	.	.
.	.	4d>\	.	.	8gg/L	4ryy	.	.
.	.	.	.	.	8ff/J	.	.	.
2c#X/	.	2ryy	.	.	4ee/	2g\	.	.
.	.	.	.	.	8dd/L	.	1	.
.	.	.	.	.	8cc#X/J	.	.	.
2A#X/	.	1ryy	.	.	4ff/	2.f#X\	.	.
.	.	.	.	.	4ee/	.	.	.
[2B/	.	.	.	.	8dd/L	.	.	.
.	.	.	.	.	8cc#/	.	.	.
.	.	.	.	.	8dd/	4fn\	.	.
.	.	.	.	.	8b/J	.	.	.
*	*v	*v	*	*	*	*	*	*
=31	=31	=31	=31	=31	=31	=31	=31
4B/]	0r	.	.	4ee/	2.ryy	5	.
8A/L	.	.	.	4dd/	.	.	.
8G#X/J	.	.	.	.	.	.	.
4A/	.	.	.	4cc/	.	.	.
4B/	.	.	.	4b/	4g\	1 4	.
2c/	.	.	.	4a/	4f#X\	2 3	.
.	.	.	.	8g/L	[4e\	1 4	.
.	.	.	.	8f#X/J	.	.	.
8B/L	.	.	.	[2b/	4e\]	.	.
8A/	.	.	.	.	.	.	.
8Gn/	.	.	.	.	4d#X\	2	.
8F#X/J	.	.	.	.	.	.	.
=32	=32	=32	=32	=32	=32	=32	=32
8G/	4r	.	.	2.b/]	4e\	1	.
8r	.	.	.	.	.	.	.
4r	(>4BB\	.	.	.	4dn\	2	.
2ryy	[<2E\	.	.	.	2c\	1	.
.	.	.	.	8a/L	.	5	.
.	.	.	.	8g/J	.	.	.
1ryy	4E\]	.	.	2f#X/)	4c\	.	.
.	4D#X\	3	.	.	(>4B\	1	.
.	4A\	1	.	2r	4c#X\	.	.
.	8G\L	3	.	.	4d#X\)	.	.
.	8F#X\J	4	.	.	.	.	.
=33	=33	=33	=33	=33	=33	=33	=33
4G\	2e>\	5	.	(>2ee/	2ryy	1 4	.
8c\L	.	2	.	.	.	.	.
8B\J	.	3	.	.	.	.	.
4A\	2ryy	4	.	2ff#X/	4cc\	3 5	.
8G\L	.	5	.	.	4a\	2	.
8F#X\J	.	4	.	.	.	.	.
4B\	1ryy	1	.	2dd#X/	2f#X\	1 4	.
4A\	.	2	.	.	.	.	.
8G\L	.	1	.	2ee/	[<2e\	1	.
8F#\	.	2	.	.	.	.	.
8G\	.	1	.	.	.	.	.
8E\J)	.	3	.	.	.	.	.
*v	*v	*	*	*	*	*	*
=34	=34	=34	=34	=34	=34	=34
*ped	*	*	*	*	*	*
2Fn\	2	.	4a/	4e\]	3	.
.	.	.	2cc/	4e-X\	5	.
2G\	.	.	.	[2d\	.	.
.	.	.	4b/	.	.	.
2E\	.	.	4g/	4d\]	3	.
.	.	.	2b-X/	4d-X\	2 5	.
!	!	!	!	!LO:TX:t=P:problem= ligatury łączącej 2c w t. 34 brak, w t. 35 jest zapisana	!	!
2F\	.	.	.	[2c\	1-2	.
.	.	.	8a/L	.	5	.
.	.	.	8g/J)	.	.	.
!!LO:LB:g=original	!	!	!	!	!	!
=35	=35	=35	=35	=35	=35	=35
2D\	4	.	(4f/	2c\]	1-2 3	.
.	.	.	2a/	.	.	.
2E\	1	.	.	[2B\	.	.
.	.	.	4g#X/	.	.	.
2C#X\	3	.	4e/	4B\]	3	.
.	.	.	2gn/	4B-X\	2 5	.
[<2D\	1	.	.	[2A\	1	.
.	.	.	8f/L	.	4	.
.	.	.	8e/J	.	3	.
=36	=36	=36	=36	=36	=36	=36
*Xped	*	*	*	*	*	*
4D\]	.	.	4f/	4A\]	4	.
4r	.	.	4g/	4B\	2 5	.
[<2AA\	3	.	4a/	4c\	1 3	.
.	.	.	4b/	4d\	1 4	.
4AA\]	.	.	4.cc/	[1e	1 5	.
4GG#X\	.	.	.	.	.	.
.	.	.	8b/	.	.	.
4D\	.	.	4a/	.	.	.
8C\L	4	.	4g#X/	.	.	.
8BB\J	5	.	.	.	.	.
=37	=37	=37	=37	=37	=37	=37
*^	*	*	*	*	*	*
2A/	4C\	1	.	4ee/	4e\]	.	.
.	8F\L	2	.	8dd/L	4r	3	.
.	8E\J	4	.	8cc/J	.	2	.
2B/	4D\	3 1	.	4ff/	2ryy	5	.
.	8C\L	.	.	4dd/	.	4	.
.	8BB\J	.	.	.	.	.	.
2G#X/	4E\	2	.	4cc/)	4r	3	.
.	4D\	3	.	4r	(4b\	2	.
[2A/	8C\L	4	.	2r	4a\	1	.
.	8BB\	5	.	.	.	.	.
.	8C\	4	.	.	[4g\	3	.
.	8AA\J	5	.	.	.	.	.
=38	=38	=38	=38	=38	=38	=38	=38
2.A/]	[1D	3-5 1-2	.	(2a/	4g\])	3	.
.	.	.	.	.	2f#X\	2	.
.	.	.	.	2b/	.	.	.
8d/L	.	1	.	.	4fn\	1	.
8c/J	.	2	.	.	.	.	.
2B/	4D\]	.	.	2g#X/	2e\	2	.
.	8E\L	3	.	.	.	.	.
.	8D\J	4	.	.	.	.	.
4A/	4C\	3 1	.	2a/	2r	.	.
4G/	4BB\	4 1	.	.	.	.	.
=39	=39	=39	=39	=39	=39	=39	=39
4F#X/	1AA	2	.	1cc	2e\	1 5	.
2A/	.	.	.	.	.	.	.
.	.	.	.	.	2f#X\	.	.
8E/L	.	3	.	.	.	.	.
8F#/J	.	.	.	.	.	.	.
4G/	2.BB\	1	.	2.b/	2d#X\	5	.
8A/L	.	2	.	.	.	.	.
8F#/J	.	3	.	.	.	.	.
2G/	.	1	.	.	[2e\	.	.
.	4C#X\	.	.	4b-X/	.	4	.
=40	=40	=40	=40	=40	=40	=40	=40
*ped	*	*	*	*	*	*	*
2F#X/	2D\	4 2	.	2a/	4e\]	5	.
.	.	.	.	.	2d\	2	.
[2G/	2E\	.	.	2g/	.	4-5	.
.	.	.	.	.	8c\L	1	.
.	.	.	.	.	8B-X\J	2	.
2G/]	2C#X\	.	.	4g/	2.A\	1	.
.	.	.	.	8d/L	.	3	.
.	.	.	.	8e/J	.	4	.
2Fn/	2D\	.	.	2fn/	.	5	.
.	.	.	.	.	4Bn\	2	.
!!LO:LB:g=original	!	!	!	!	!	!	!
*Xped	*	*	*	*	*	*	*
=41	=41	=41	=41	=41	=41	=41	=41
!	!	!	!	!LO:TX:a:i:t=ritenuto	!	!	!
(1G	2.C\	5 1	.	[1e	4d\	3	.
.	.	.	.	.	8c\L	1	.
.	.	.	.	.	8B\J	2	.
.	.	.	.	.	[2c\	1	.
.	4BB\	2	.	.	.	.	.
2A/	4AA\	5	.	2e/]	2.c\]	4-3	.
.	4GG\	4	.	.	.	.	.
4C/	2FF\	5-4 2	.	4a/	.	.	.
4F/	.	1	.	4d/)	8B\L	2	.
.	.	.	.	.	8A\J	1	.
=42	=42	=42	=42	=42	=42	=42	=42
2BB/	0EE	2	.	0e;	2G#X\	2	.
4AA/	.	3	.	.	4c\	4	.
4C/	.	1	.	.	4A\	1	.
1BB;)	.	2	.	.	1G#;	2	.
=43	=43	=43	=43	=43	=43	=43	=43
!	!	!	!	!LO:TX:a:i:t=5) prawa ręka na drugiej klawiaturze, w pierwszej zaś użyć łagodnych głosów 8 stopowych. / Die rechte Hand auf dem zweiten Manual, dem ersten kommen sanfte 8 Fussstimmen zu.	!	!	!
!	!	!	!	!LO:TX:a:i:t=Tempo I sostenuto	!	!	!
0r	2AA\	3	.	4r	4ryy	.	pp
!	!	!	!	!LO:TX:b:i:t=dolce	!	!	!
.	.	.	.	(2a/	4c\	1 5	.
.	2BB\	2	.	.	2d\	2	.
.	.	.	.	8g/L	.	5	.
.	.	.	.	8f/J	.	.	.
.	2GG#X\	.	.	4e/	4c\	1 3	.
.	.	.	.	4d/	2B\	2 4	.
.	2AA\	.	.	4.c/	.	3	.
.	.	.	.	.	8A\L	1	.
.	.	.	.	8d/	8B\J	2 4	.
=44	=44	=44	=44	=44	=44	=44	=44
0r	2AA\	2	.	4e/)	4c\	1 5	.
.	.	.	.	(2cc/	8f\L	2	.
.	.	.	.	.	8e\J	1	.
.	2BB\	1	.	.	2d#X\	2	.
.	.	.	.	8b/L	.	5	.
.	.	.	.	8a/J	.	4	.
.	2GG#X\	.	.	4b/	2dn\	1	.
.	.	.	.	4e/	.	3	.
.	2AA\	.	.	4gn/	2c#X\	2 5	<
.	.	.	.	8f/L	.	4	.
.	.	.	.	8e/J	.	3	.
*v	*v	*	*	*	*	*	*
=45	=45	=45	=45	=45	=45	=45
4AA\	.	.	2f/	4cn\	1 5	.
4BB\	.	.	.	2d\	3	.
2C\	1	.	[2e/	.	4	.
.	.	.	.	8c\L	2	.
.	.	.	.	8B\J	1	.
2C\	2	.	4e/]	4c\	2	.
.	.	.	4f#X/	4A\	1 3	.
4BB\	.	.	[2g/	4d\	2 5	.
4AA\	.	.	.	4c\	1	.
=46	=46	=46	=46	=46	=46	=46
2C\	.	.	2.g/]	4e\	3	.
.	.	.	.	4e-X\	2	.
2.BB\	.	.	.	2d\	1	[
.	.	.	8a/L	.	3	.
.	.	.	8b/J	.	4	.
.	.	.	2.cc/	2.c\	5	.
4BB\	2	.	.	.	.	.
4AA\	.	.	.	.	.	.
4BB\	.	.	4b/)	[4g\	2 4	.
!!LO:LB:g=original	!	!	!	!	!	!
=47	=47	=47	=47	=47	=47	=47
2C\	1	.	(4a/	2g\]	2-1 3	.
.	.	.	2ee/	.	.	.
[<2C\	2	.	.	2f#X\	2	.
.	.	.	4a/	.	.	.
4C\]	.	.	2.dd/	[1fn	.	>
4C\	1	.	.	.	.	.
4BB\	.	.	.	.	.	.
4AA\	.	.	4cc/)	.	.	.
=48	=48	=48	=48	=48	=48	=48
*^	*	*	*	*	*	*
2r	1GG#X	.	.	(1b	4f\]	.	.
.	.	.	.	.	(4B\	1	.
4r	.	.	.	.	4e\	2	]
(4E/	.	2	.	.	4d\	1	.
4A/	[1AA	1	.	4a/	4c\	1 3	.
8G/L	.	2	.	4b/	4d\	1 4	.
8F/J	.	1	.	.	.	.	.
!	!	!	!	!	!	!	!LO:HP:a
4E/	.	2	.	2cc/	4e\	2 5	<
4A/	.	1	.	.	4c\	1	.
=49	=49	=49	=49	=49	=49	=49	=49
4G/	0AA_	2	.	4b/	4d\	1 5	.
!	!	!	!	!	!	!	!LO:HP:a
4F/	.	1	.	4a/	4d#X\	2 4	[ >
4E/	.	2	.	2g#X/	4e\	1 3	.
4B/	.	.	.	.	4dn\	2	.
!	!	!	!	!	!	!	!LO:HP:a
!	!	!	!	!	!	!	!LO:DY:a
4A/	.	.	.	4a/	4c\	1 5	] pp
8G/L	.	.	.	4b/	4d\	1 4	.
8F/J	.	.	.	.	.	.	.
4E/	.	.	.	2cc/	4e\	2 5	.
4A/	.	.	.	.	4c\	1	.
=50	=50	=50	=50	=50	=50	=50	=50
4G/	0AA_	.	.	4b/	2.d\)	1 4	.
4F/	.	.	.	4a/	.	5	.
!	!	!	!	!	!	!	!LO:HP:a
4E/	.	.	.	1g#X	.	4	<
4F/	.	.	.	.	8B\L	1	.
.	.	.	.	.	8c\J	2	.
[1E)	.	.	.	.	4.d\	1	.
!	!	!	!	!LO:TX:b:i:t=poco ritard.	!	!	!
!	!	!	!	!LO:TX:t=P:problem=klamra łukowa	!	!	!
.	.	.	.	.	24d\LL	1	.
.	.	.	.	.	24e\	2	.
.	.	.	.	.	24f\JJ	3	.
.	.	.	.	2g#/)	4e\	2	[
.	.	.	.	.	4d\	1	.
=51	=51	=51	=51	=51	=51	=51	=51
!	!	!	!	!	!	!	!LO:HP:a
0E]	0AA]	.	.	0a;	2.d\	.	>
.	.	.	.	.	16c#X\LL	2	.
.	.	.	.	.	16d\	1	.
.	.	.	.	.	16c#\	2	.
.	.	.	.	.	16B\JJ	1	.
.	.	.	.	.	1c#	2	]
*v	*v	*	*	*	*	*	*
*	*	*	*v	*v	*	*
==	==	==	==	==	==
*-	*-	*-	*-	*-	*-
!!!system-decoration: {(s1,s2)}
!!!RDF**kern: > = above
!!!RDF**kern: < = below
!!!ENC: Andrzej Gręziak
!!!END: 2022-03-13
!!!ENC: Natalia Wrzos
!!!END: 2022-03-19
